src/lib/packages/icons/src/assets/line/desktop-code.svg

<svg width="24" height="24" viewBox="0 0 24 24" fill="none" xmlns="http://www.w3.org/2000/svg">
<path d="M18 2.25H6C3.582 2.25 2.25 3.582 2.25 6V14C2.25 16.418 3.582 17.75 6 17.75H9.25V20.25H7.5C7.086 20.25 6.75 20.586 6.75 21C6.75 21.414 7.086 21.75 7.5 21.75H16.5C16.914 21.75 17.25 21.414 17.25 21C17.25 20.586 16.914 20.25 16.5 20.25H14.75V17.75H18C20.418 17.75 21.75 16.418 21.75 14V6C21.75 3.582 20.418 2.25 18 2.25ZM13.25 20.25H10.75V17.75H13.25V20.25ZM20.25 14C20.25 15.577 19.577 16.25 18 16.25H14H10H6C4.423 16.25 3.75 15.577 3.75 14V6C3.75 4.423 4.423 3.75 6 3.75H18C19.577 3.75 20.25 4.423 20.25 6V14ZM10.53 8.53003L9.06006 10L10.53 11.47C10.823 11.763 10.823 12.238 10.53 12.531C10.384 12.677 10.192 12.751 10 12.751C9.808 12.751 9.61597 12.678 9.46997 12.531L7.46997 10.531C7.17697 10.238 7.17697 9.76297 7.46997 9.46997L9.46997 7.46997C9.76297 7.17697 10.238 7.17697 10.531 7.46997C10.824 7.76297 10.823 8.23703 10.53 8.53003ZM16.53 9.46997C16.823 9.76297 16.823 10.238 16.53 10.531L14.53 12.531C14.384 12.677 14.192 12.751 14 12.751C13.808 12.751 13.616 12.678 13.47 12.531C13.177 12.238 13.177 11.763 13.47 11.47L14.9399 10L13.47 8.53003C13.177 8.23703 13.177 7.76199 13.47 7.46899C13.763 7.17599 14.238 7.17599 14.531 7.46899L16.53 9.46997Z" fill="currentColor"/>
</svg>

<svg xmlns="http://www.w3.org/2000/svg" width="24" height="24" fill="none"><path fill="currentColor" d="M18 2.25H6C3.582 2.25 2.25 3.582 2.25 6v8c0 2.418 1.332 3.75 3.75 3.75h3.25v2.5H7.5a.75.75 0 0 0 0 1.5h9a.75.75 0 0 0 0-1.5h-1.75v-2.5H18c2.418 0 3.75-1.332 3.75-3.75V6c0-2.418-1.332-3.75-3.75-3.75Zm-4.75 18h-2.5v-2.5h2.5v2.5Zm7-6.25c0 1.577-.673 2.25-2.25 2.25H6c-1.577 0-2.25-.673-2.25-2.25V6c0-1.577.673-2.25 2.25-2.25h12c1.577 0 2.25.673 2.25 2.25v8Zm-9.72-5.47L9.06 10l1.47 1.47a.75.75 0 0 1-1.06 1.061l-2-2a.75.75 0 0 1 0-1.061l2-2a.75.75 0 1 1 1.06 1.06Zm6 .94a.75.75 0 0 1 0 1.061l-2 2a.748.748 0 0 1-1.06 0 .75.75 0 0 1 0-1.061L14.94 10l-1.47-1.47a.75.75 0 0 1 1.061-1.061L16.53 9.47Z"/></svg>
